assets/luts/TokyoDeception.CUBE
#Generated by wwww.onlinelutcreator.com 
LUT_3D_SIZE 8
DOMAIN_MIN 0.000000 0.000000 0.000000
DOMAIN_MAX 0.903226 0.903226 0.903226
0.007843 0.000000 0.023529
0.211765 0.000000 0.007843
0.196078 0.007843 0.000000
0.454902 0.011765 0.000000
0.819608 0.094118 0.000000
0.839216 0.007843 0.003922
0.996078 0.133333 0.000000
1.000000 0.211765 0.047059
0.000000 0.192157 0.000000
0.235294 0.254902 0.003922
0.243137 0.098039 0.023529
0.478431 0.117647 0.019608
0.741176 0.188235 0.007843
0.831373 0.078431 0.019608
1.000000 0.207843 0.000000
1.000000 0.294118 0.054902
0.003922 0.521569 0.050980
0.000000 0.266667 0.000000
0.270588 0.341176 0.019608
0.509804 0.356863 0.000000
0.713725 0.384314 0.000000
0.945098 0.454902 0.000000
0.858824 0.239216 0.000000
0.992157 0.380392 0.000000
0.000000 0.674510 0.000000
0.000000 0.631373 0.015686
0.282353 0.611765 0.000000
0.698039 0.760784 0.090196
0.749020 0.639216 0.007843
0.803922 0.545098 0.003922
0.996078 0.584314 0.023529
1.000000 0.619608 0.160784
0.000000 0.635294 0.011765
0.007843 0.705882 0.000000
0.266667 0.870588 0.007843
0.384314 0.701961 0.000000
0.537255 0.623529 0.000000
0.866667 0.792157 0.003922
0.984314 0.741176 0.023529
1.000000 0.862745 0.313725
0.000000 0.992157 0.152941
0.000000 0.862745 0.000000
0.003922 0.768627 0.000000
0.184314 0.776471 0.000000
0.517647 0.850980 0.015686
0.815686 0.921569 0.000000
0.839216 0.811765 0.000000
1.000000 0.890196 0.000000
0.000000 0.992157 0.160784
0.000000 0.882353 0.000000
0.000000 1.000000 0.133333
0.294118 0.964706 0.070588
0.498039 0.972549 0.090196
0.772549 1.000000 0.282353
0.835294 0.972549 0.000000
0.882353 0.874510 0.000000
0.227451 0.996078 0.360784
0.000000 1.000000 0.333333
0.015686 0.992157 0.003922
0.141176 0.988235 0.247059
0.368627 1.000000 0.231373
0.458824 1.000000 0.192157
0.854902 0.992157 0.419608
0.882353 1.000000 0.278431
0.003922 0.000000 0.070588
0.192157 0.000000 0.176471
0.192157 0.007843 0.039216
0.552941 0.007843 0.129412
0.737255 0.000000 0.137255
1.000000 0.243137 0.274510
0.984314 0.203922 0.223529
1.000000 0.133333 0.172549
0.003922 0.160784 0.129412
0.043137 0.070588 0.043137
0.290196 0.113725 0.094118
0.388235 0.003922 0.000000
0.639216 0.000000 0.019608
1.000000 0.219608 0.156863
1.000000 0.219608 0.137255
0.988235 0.235294 0.152941
0.000000 0.439216 0.149020
0.027451 0.403922 0.125490
0.443137 0.525490 0.262745
0.466667 0.352941 0.054902
0.803922 0.458824 0.176471
0.788235 0.290196 0.000000
1.000000 0.474510 0.270588
0.992157 0.419608 0.188235
0.000000 0.623529 0.015686
0.000000 0.611765 0.011765
0.313725 0.662745 0.066667
0.552941 0.643137 0.047059
0.737255 0.619608 0.031373
0.933333 0.639216 0.141176
0.972549 0.521569 0.094118
0.984314 0.486275 0.121569
0.000000 0.623529 0.000000
0.003922 0.749020 0.000000
0.062745 0.776471 0.007843
0.403922 0.760784 0.019608
0.662745 0.764706 0.000000
1.000000 0.937255 0.384314
0.984314 0.733333 0.105882
0.917647 0.556863 0.000000
0.015686 0.937255 0.219608
0.000000 0.882353 0.086275
0.321569 0.992157 0.301961
0.392157 0.909804 0.105882
0.721569 1.000000 0.286275
0.745098 0.890196 0.098039
0.925490 0.882353 0.086275
1.000000 0.890196 0.239216
0.000000 0.976471 0.231373
0.062745 0.996078 0.384314
0.000000 0.890196 0.070588
0.000000 0.800000 0.000000
0.517647 0.952941 0.235294
0.623529 0.929412 0.152941
0.796078 0.925490 0.027451
1.000000 0.937255 0.149020
0.000000 1.000000 0.337255
0.188235 1.000000 0.407843
0.000000 1.000000 0.227451
0.556863 0.992157 0.450980
0.768627 0.996078 0.556863
0.698039 1.000000 0.447059
0.972549 1.000000 0.607843
0.972549 0.996078 0.470588
0.000000 0.000000 0.380392
0.235294 0.000000 0.400000
0.450980 0.003922 0.439216
0.482353 0.000000 0.313725
0.894118 0.003922 0.466667
0.905882 0.000000 0.376471
0.988235 0.333333 0.513725
1.000000 0.000000 0.258824
0.000000 0.141176 0.333333
0.019608 0.047059 0.262745
0.396078 0.156863 0.392157
0.403922 0.000000 0.203922
0.745098 0.011765 0.352941
0.952941 0.168627 0.352941
1.000000 0.290196 0.407843
1.000000 0.352941 0.423529
0.007843 0.388235 0.360784
0.000000 0.309804 0.329412
0.415686 0.478431 0.466667
0.623529 0.466667 0.435294
0.725490 0.372549 0.380392
0.898039 0.419608 0.376471
0.945098 0.345098 0.313725
0.988235 0.517647 0.454902
0.011765 0.588235 0.313725
0.000000 0.694118 0.419608
0.286275 0.678431 0.403922
0.509804 0.611765 0.325490
0.811765 0.654902 0.415686
0.819608 0.576471 0.345098
0.949020 0.529412 0.356863
0.988235 0.631373 0.454902
0.000000 0.807843 0.349020
0.000000 0.705882 0.262745
0.000000 0.772549 0.325490
0.552941 0.866667 0.423529
0.776471 0.866667 0.450980
0.780392 0.729412 0.282353
0.976471 0.745098 0.376471
1.000000 0.733333 0.435294
0.000000 0.870588 0.301961
0.000000 0.870588 0.317647
0.094118 0.890196 0.337255
0.356863 0.835294 0.298039
0.584314 0.890196 0.360784
0.784314 0.905882 0.396078
0.886275 0.854902 0.294118
0.949020 0.729412 0.192157
0.007843 0.976471 0.415686
0.000000 0.984314 0.400000
0.035294 0.952941 0.368627
0.270588 0.894118 0.290196
0.772549 1.000000 0.545098
0.733333 0.976471 0.415686
0.901961 0.996078 0.415686
0.839216 0.839216 0.109804
0.078431 0.988235 0.454902
0.000000 1.000000 0.286275
0.003922 1.000000 0.345098
0.027451 0.992157 0.360784
0.572549 1.000000 0.513725
0.729412 1.000000 0.545098
0.674510 1.000000 0.427451
0.941176 0.984314 0.474510
0.000000 0.000000 0.482353
0.062745 0.000000 0.588235
0.580392 0.000000 0.807843
0.533333 0.000000 0.568627
0.560784 0.000000 0.423529
1.000000 0.007843 0.635294
1.000000 0.411765 0.760784
1.000000 0.066667 0.447059
0.023529 0.290196 0.788235
0.000000 0.003922 0.537255
0.313725 0.035294 0.592157
0.556863 0.000000 0.584314
0.819608 0.113725 0.643137
0.984314 0.172549 0.635294
0.984314 0.376471 0.635294
1.000000 0.231373 0.490196
0.000000 0.443137 0.678431
0.000000 0.317647 0.537255
0.290196 0.384314 0.627451
0.427451 0.270588 0.517647
0.941176 0.588235 0.800000
0.941176 0.447059 0.631373
0.780392 0.227451 0.364706
1.000000 0.501961 0.623529
0.007843 0.615686 0.623529
0.000000 0.560784 0.549020
0.172549 0.600000 0.588235
0.592157 0.682353 0.658824
0.619608 0.509804 0.505882
0.894118 0.662745 0.639216
0.886275 0.517647 0.521569
1.000000 0.658824 0.654902
0.003922 0.760784 0.576471
0.003922 0.807843 0.654902
0.137255 0.776471 0.592157
0.486275 0.823529 0.631373
0.662745 0.784314 0.619608
0.815686 0.760784 0.576471
1.000000 0.827451 0.678431
0.972549 0.819608 0.658824
0.027451 0.866667 0.529412
0.000000 0.945098 0.607843
0.149020 0.843137 0.537255
0.403922 0.835294 0.549020
0.619608 0.913725 0.592157
0.658824 0.788235 0.478431
0.937255 0.874510 0.572549
1.000000 0.866667 0.600000
0.011765 1.000000 0.650980
0.000000 0.913725 0.470588
0.235294 0.992157 0.564706
0.466667 0.984314 0.588235
0.529412 0.921569 0.537255
0.584314 0.819608 0.443137
0.878431 1.000000 0.596078
0.992157 0.988235 0.560784
0.015686 0.980392 0.403922
0.333333 1.000000 0.584314
0.627451 1.000000 0.725490
0.003922 1.000000 0.372549
0.729412 1.000000 0.721569
0.584314 1.000000 0.568627
0.854902 1.000000 0.690196
1.000000 1.000000 0.729412
0.000000 0.000000 0.670588
0.015686 0.000000 0.811765
0.278431 0.000000 0.788235
0.643137 0.003922 0.901961
0.764706 0.007843 0.850980
0.992157 0.054902 0.901961
0.964706 0.000000 0.686275
1.000000 0.109804 0.658824
0.000000 0.121569 0.878431
0.003922 0.105882 0.882353
0.501961 0.239216 0.988235
0.580392 0.129412 0.878431
0.772549 0.105882 0.862745
0.866667 0.000000 0.741176
0.925490 0.003922 0.658824
1.000000 0.435294 0.796078
0.000000 0.466667 0.925490
0.015686 0.341176 0.811765
0.168627 0.305882 0.760784
0.525490 0.392157 0.835294
0.741176 0.411765 0.850980
0.901961 0.384314 0.811765
0.894118 0.345098 0.682353
0.984314 0.474510 0.709804
0.000000 0.572549 0.772549
0.000000 0.607843 0.796078
0.003922 0.443137 0.631373
0.392157 0.498039 0.705882
0.619608 0.537255 0.698039
0.866667 0.623529 0.807843
1.000000 0.764706 0.898039
0.988235 0.588235 0.741176
0.000000 0.819608 0.831373
0.003922 0.803922 0.831373
0.027451 0.729412 0.745098
0.392157 0.701961 0.752941
0.525490 0.643137 0.674510
0.741176 0.705882 0.725490
0.976471 0.831373 0.858824
0.992157 0.776471 0.788235
0.015686 0.866667 0.752941
0.000000 0.901961 0.749020
0.388235 0.992157 0.858824
0.298039 0.776471 0.631373
0.705882 0.925490 0.811765
0.654902 0.752941 0.639216
0.682353 0.643137 0.545098
0.913725 0.788235 0.627451
0.019608 0.988235 0.709804
0.003922 0.925490 0.694118
0.254902 0.988235 0.721569
0.360784 0.882353 0.658824
0.596078 0.952941 0.729412
0.709804 0.937255 0.737255
0.874510 0.956863 0.733333
0.980392 0.972549 0.733333
0.384314 1.000000 0.764706
0.019608 1.000000 0.650980
0.450980 1.000000 0.745098
0.129412 1.000000 0.627451
0.709804 1.000000 0.800000
0.803922 1.000000 0.815686
0.886275 1.000000 0.807843
0.980392 1.000000 0.866667
0.011765 0.007843 0.956863
0.243137 0.050980 0.992157
0.007843 0.000000 0.733333
0.537255 0.000000 0.992157
0.764706 0.141176 1.000000
0.835294 0.007843 0.937255
0.886275 0.000000 0.827451
1.000000 0.011765 0.866667
0.003922 0.066667 0.890196
0.235294 0.223529 1.000000
0.274510 0.101961 0.913725
0.592157 0.262745 0.976471
0.607843 0.047059 0.878431
0.803922 0.105882 0.921569
0.866667 0.003922 0.827451
0.980392 0.329412 0.964706
0.000000 0.423529 1.000000
0.000000 0.396078 0.956863
0.282353 0.396078 0.937255
0.827451 0.654902 1.000000
0.627451 0.403922 0.925490
0.768627 0.337255 0.866667
0.898039 0.321569 0.843137
0.972549 0.305882 0.784314
0.000000 0.541176 0.901961
0.000000 0.533333 0.878431
0.427451 0.662745 1.000000
0.360784 0.490196 0.807843
0.803922 0.725490 1.000000
0.752941 0.568627 0.874510
0.968627 0.580392 0.937255
1.000000 0.588235 0.909804
0.027451 0.721569 0.917647
0.000000 0.725490 0.945098
0.015686 0.588235 0.788235
0.458824 0.705882 0.878431
0.631373 0.721569 0.882353
0.764706 0.713725 0.886275
0.764706 0.600000 0.756863
0.925490 0.603922 0.745098
0.000000 0.917647 0.960784
0.078431 0.917647 0.925490
0.035294 0.811765 0.847059
0.211765 0.690196 0.709804
0.560784 0.835294 0.835294
0.811765 0.917647 0.952941
0.839216 0.807843 0.858824
0.988235 0.929412 0.941176
0.015686 0.972549 0.862745
0.000000 0.972549 0.843137
0.556863 0.992157 1.000000
0.364706 0.933333 0.819608
0.698039 1.000000 0.949020
0.862745 1.000000 0.996078
0.854902 0.945098 0.874510
0.992157 0.941176 0.866667
0.015686 1.000000 0.823529
0.447059 0.992157 0.909804
0.003922 1.000000 0.741176
0.674510 0.996078 0.941176
0.490196 0.984314 0.745098
0.760784 1.000000 0.874510
1.000000 0.988235 0.992157
0.890196 0.984314 0.843137
0.007843 0.054902 1.000000
0.000000 0.000000 0.984314
0.325490 0.121569 1.000000
0.372549 0.066667 0.984314
0.541176 0.109804 0.984314
0.654902 0.031373 1.000000
0.996078 0.301961 1.000000
0.858824 0.003922 0.921569
0.000000 0.027451 0.952941
0.011765 0.192157 0.976471
0.407843 0.294118 1.000000
0.431373 0.247059 1.000000
0.552941 0.207843 0.992157
0.745098 0.282353 0.996078
0.949020 0.305882 0.992157
0.992157 0.200000 0.968627
0.007843 0.352941 0.988235
0.529412 0.549020 1.000000
0.000000 0.301961 0.952941
0.454902 0.396078 0.988235
0.564706 0.384314 0.976471
0.819608 0.505882 0.980392
1.000000 0.541176 0.992157
1.000000 0.619608 0.996078
0.054902 0.541176 0.996078
0.274510 0.576471 1.000000
0.372549 0.580392 1.000000
0.580392 0.631373 0.992157
0.749020 0.674510 0.984314
0.780392 0.619608 0.988235
0.972549 0.662745 1.000000
0.992157 0.529412 0.960784
0.352941 0.768627 1.000000
0.243137 0.666667 1.000000
0.466667 0.764706 0.968627
0.372549 0.615686 0.917647
0.619608 0.729412 0.984314
0.847059 0.768627 1.000000
0.890196 0.749020 0.992157
0.988235 0.666667 0.956863
0.333333 0.886275 0.996078
0.325490 0.874510 1.000000
0.345098 0.811765 0.945098
0.737255 0.972549 1.000000
0.796078 0.968627 1.000000
0.807843 0.886275 0.992157
0.882353 0.843137 0.980392
0.980392 0.898039 1.000000
0.000000 0.768627 0.890196
0.015686 0.772549 0.901961
0.003922 0.850980 0.949020
0.407843 0.909804 0.952941
0.984314 1.000000 0.988235
0.905882 0.996078 0.956863
0.917647 0.956863 1.000000
0.996078 0.992157 0.972549
0.878431 1.000000 0.980392
0.317647 1.000000 0.952941
0.015686 1.000000 0.792157
0.439216 1.000000 0.898039
0.776471 1.000000 0.972549
0.572549 0.996078 0.854902
0.956863 1.000000 0.968627
0.933333 1.000000 0.925490
0.192157 0.200000 1.000000
0.439216 0.290196 1.000000
0.317647 0.215686 0.980392
0.474510 0.282353 1.000000
0.709804 0.396078 1.000000
0.929412 0.513725 0.992157
0.870588 0.396078 0.996078
1.000000 0.396078 1.000000
0.215686 0.258824 1.000000
0.521569 0.388235 1.000000
0.549020 0.400000 0.980392
0.603922 0.384314 1.000000
0.435294 0.258824 0.992157
0.741176 0.407843 0.976471
0.854902 0.388235 0.984314
0.933333 0.325490 0.960784
0.372549 0.454902 1.000000
0.454902 0.482353 0.992157
0.800000 0.654902 1.000000
0.372549 0.368627 0.980392
0.756863 0.568627 0.996078
0.800000 0.521569 1.000000
0.866667 0.529412 1.000000
0.792157 0.337255 0.976471
0.003922 0.443137 0.984314
0.466667 0.592157 0.996078
0.286275 0.501961 0.968627
0.427451 0.525490 0.988235
0.627451 0.576471 1.000000
0.498039 0.443137 1.000000
0.894118 0.658824 1.000000
0.992157 0.690196 1.000000
0.321569 0.654902 1.000000
0.611765 0.768627 1.000000
0.000000 0.494118 1.000000
0.666667 0.764706 1.000000
0.478431 0.615686 1.000000
0.878431 0.796078 1.000000
0.776471 0.666667 1.000000
0.839216 0.647059 1.000000
0.454902 0.811765 1.000000
0.525490 0.811765 1.000000
0.309804 0.705882 1.000000
0.474510 0.733333 1.000000
0.768627 0.882353 1.000000
0.756863 0.803922 1.000000
0.866667 0.831373 1.000000
0.913725 0.803922 0.964706
0.337255 0.843137 1.000000
0.407843 0.878431 0.984314
0.886275 1.000000 0.992157
0.674510 0.937255 0.960784
0.552941 0.811765 1.000000
0.807843 0.933333 1.000000
0.929412 0.952941 1.000000
0.929412 0.866667 1.000000
0.521569 1.000000 0.996078
0.588235 1.000000 0.988235
0.478431 0.992157 0.972549
0.415686 0.960784 0.980392
0.698039 0.992157 1.000000
0.854902 1.000000 0.968627
1.000000 0.996078 0.984314
0.956863 1.000000 1.000000
