assets/luts/TokyoDeception.CUBE
#Generated by wwww.onlinelutcreator.com 
LUT_3D_SIZE 5
DOMAIN_MIN 0.000000 0.000000 0.000000
DOMAIN_MAX 0.903226 0.903226 0.903226
0.007843 0.000000 0.023529
0.396078 0.101961 0.000000
0.717647 0.062745 0.000000
0.792157 0.000000 0.007843
1.000000 0.211765 0.047059
0.000000 0.423529 0.000000
0.219608 0.282353 0.003922
0.635294 0.345098 0.003922
0.972549 0.368627 0.023529
1.000000 0.431373 0.105882
0.000000 0.654902 0.007843
0.000000 0.545098 0.000000
0.517647 0.615686 0.011765
0.952941 0.745098 0.000000
1.000000 0.568627 0.019608
0.000000 0.980392 0.129412
0.000000 0.847059 0.011765
0.309804 0.792157 0.000000
0.831373 0.952941 0.007843
0.964706 0.796078 0.007843
0.227451 0.996078 0.360784
0.545098 1.000000 0.470588
0.007843 1.000000 0.196078
0.521569 0.984314 0.207843
0.882353 1.000000 0.278431
0.000000 0.007843 0.301961
0.431373 0.003922 0.415686
0.768627 0.000000 0.400000
0.996078 0.086275 0.376471
1.000000 0.133333 0.305882
0.019608 0.305882 0.278431
0.215686 0.266667 0.239216
0.525490 0.172549 0.172549
0.933333 0.313725 0.309804
1.000000 0.349020 0.313725
0.000000 0.823529 0.388235
0.000000 0.741176 0.266667
0.611765 0.729412 0.282353
0.898039 0.705882 0.301961
1.000000 0.682353 0.396078
0.007843 0.984314 0.411765
0.207843 1.000000 0.435294
0.450980 0.874510 0.294118
0.796078 0.937255 0.317647
1.000000 0.886275 0.250980
0.000000 1.000000 0.364706
0.301961 0.996078 0.439216
0.780392 0.996078 0.631373
0.898039 0.992157 0.615686
0.964706 1.000000 0.482353
0.000000 0.000000 0.584314
0.274510 0.000000 0.717647
0.764706 0.003922 0.827451
1.000000 0.000000 0.705882
1.000000 0.223529 0.631373
0.000000 0.215686 0.658824
0.000000 0.156863 0.588235
0.643137 0.239216 0.698039
0.905882 0.305882 0.662745
1.000000 0.478431 0.701961
0.000000 0.698039 0.721569
0.000000 0.717647 0.741176
0.560784 0.686275 0.682353
0.917647 0.737255 0.737255
0.996078 0.623529 0.647059
0.007843 0.984314 0.670588
0.243137 0.945098 0.678431
0.478431 0.878431 0.619608
0.764706 0.839216 0.619608
0.854902 0.698039 0.454902
0.000000 0.996078 0.588235
0.000000 1.000000 0.596078
0.772549 1.000000 0.803922
0.768627 1.000000 0.701961
0.980392 0.996078 0.764706
0.000000 0.000000 0.933333
0.372549 0.133333 0.988235
0.584314 0.000000 0.956863
0.882353 0.050980 1.000000
0.960784 0.207843 0.929412
0.282353 0.415686 1.000000
0.078431 0.223529 0.878431
0.580392 0.337255 0.960784
1.000000 0.494118 1.000000
0.972549 0.286275 0.886275
0.007843 0.552941 0.870588
0.188235 0.588235 0.882353
0.498039 0.572549 0.839216
0.780392 0.647059 0.886275
0.972549 0.564706 0.811765
0.000000 0.968627 0.960784
0.000000 0.705882 0.709804
0.462745 0.858824 0.890196
0.674510 0.737255 0.788235
1.000000 0.996078 1.000000
0.462745 0.996078 0.909804
1.000000 0.992157 1.000000
0.000000 1.000000 0.709804
0.725490 1.000000 0.839216
0.952941 0.992157 0.949020
0.192157 0.200000 1.000000
0.000000 0.160784 0.996078
0.549020 0.298039 1.000000
0.823529 0.423529 0.996078
1.000000 0.396078 1.000000
0.568627 0.494118 0.996078
0.345098 0.368627 0.988235
0.741176 0.521569 1.000000
0.815686 0.482353 0.992157
0.972549 0.407843 0.984314
0.011765 0.517647 1.000000
0.525490 0.666667 0.956863
0.576471 0.611765 1.000000
0.933333 0.764706 0.984314
1.000000 0.737255 1.000000
0.411765 0.839216 1.000000
0.501961 0.827451 0.984314
0.623529 0.839216 1.000000
0.611765 0.709804 1.000000
0.956863 0.878431 1.000000
0.521569 1.000000 0.996078
0.854902 1.000000 0.976471
0.352941 0.941176 1.000000
0.972549 1.000000 1.000000
0.956863 1.000000 1.000000
