assets/luts/TokyoDeception.CUBE
#Generated by wwww.onlinelutcreator.com 
LUT_3D_SIZE 32
0.007843 0.000000 0.023529
0.000000 0.007843 0.000000
0.000000 0.011765 0.003922
0.231373 0.000000 0.011765
0.211765 0.000000 0.007843
0.196078 0.000000 0.000000
0.325490 0.007843 0.003922
0.396078 0.101961 0.000000
0.196078 0.007843 0.000000
0.333333 0.000000 0.015686
0.368627 0.000000 0.000000
0.556863 0.109804 0.015686
0.454902 0.011765 0.000000
0.486275 0.000000 0.000000
0.717647 0.062745 0.000000
0.650980 0.007843 0.003922
0.819608 0.094118 0.000000
0.882353 0.101961 0.019608
0.654902 0.000000 0.000000
1.000000 0.301961 0.152941
0.839216 0.007843 0.003922
0.792157 0.000000 0.007843
0.992157 0.188235 0.003922
0.996078 0.156863 0.011765
0.996078 0.133333 0.000000
0.925490 0.003922 0.000000
1.000000 0.160784 0.015686
0.988235 0.266667 0.164706
1.000000 0.211765 0.047059
0.992157 0.000000 0.000000
1.000000 0.113725 0.000000
1.000000 0.227451 0.113725
0.000000 0.015686 0.000000
0.015686 0.000000 0.019608
0.078431 0.039216 0.000000
0.015686 0.000000 0.007843
0.168627 0.054902 0.000000
0.286275 0.133333 0.003922
0.207843 0.003922 0.011765
0.235294 0.000000 0.000000
0.333333 0.050980 0.000000
0.337255 0.015686 0.000000
0.309804 0.000000 0.000000
0.407843 0.003922 0.007843
0.509804 0.027451 0.000000
0.596078 0.000000 0.031373
0.545098 0.003922 0.003922
0.600000 0.003922 0.000000
0.623529 0.003922 0.000000
0.792157 0.000000 0.039216
0.905882 0.133333 0.000000
0.960784 0.133333 0.015686
0.952941 0.117647 0.000000
0.984314 0.243137 0.023529
1.000000 0.109804 0.031373
1.000000 0.337255 0.156863
0.949020 0.000000 0.003922
0.960784 0.007843 0.000000
1.000000 0.227451 0.074510
0.992157 0.235294 0.066667
0.988235 0.000000 0.003922
0.988235 0.145098 0.000000
1.000000 0.313725 0.196078
1.000000 0.007843 0.000000
0.000000 0.011765 0.000000
0.000000 0.219608 0.000000
0.007843 0.000000 0.011765
0.101961 0.043137 0.023529
0.094118 0.062745 0.000000
0.243137 0.113725 0.000000
0.313725 0.160784 0.000000
0.250980 0.062745 0.023529
0.329412 0.105882 0.000000
0.439216 0.145098 0.000000
0.411765 0.074510 0.015686
0.513725 0.113725 0.023529
0.478431 0.000000 0.000000
0.580392 0.062745 0.011765
0.705882 0.152941 0.000000
0.592157 0.000000 0.000000
0.800000 0.101961 0.000000
0.819608 0.141176 0.007843
0.768627 0.003922 0.000000
0.972549 0.243137 0.003922
0.933333 0.141176 0.000000
1.000000 0.211765 0.003922
1.000000 0.301961 0.058824
1.000000 0.172549 0.019608
0.996078 0.098039 0.007843
0.988235 0.000000 0.003922
0.984314 0.184314 0.000000
1.000000 0.094118 0.003922
1.000000 0.384314 0.219608
0.992157 0.223529 0.035294
1.000000 0.168627 0.039216
1.000000 0.105882 0.000000
0.000000 0.235294 0.011765
0.000000 0.000000 0.019608
0.192157 0.235294 0.000000
0.066667 0.058824 0.000000
0.113725 0.109804 0.000000
0.000000 0.000000 0.000000
0.270588 0.145098 0.000000
0.313725 0.168627 0.003922
0.305882 0.101961 0.007843
0.380392 0.133333 0.011765
0.349020 0.070588 0.000000
0.462745 0.105882 0.023529
0.623529 0.235294 0.000000
0.494118 0.027451 0.000000
0.686275 0.188235 0.011765
0.784314 0.227451 0.000000
0.713725 0.074510 0.015686
0.854902 0.227451 0.000000
0.815686 0.066667 0.000000
0.843137 0.105882 0.000000
0.784314 0.000000 0.003922
0.827451 0.003922 0.007843
0.996078 0.235294 0.000000
0.941176 0.000000 0.000000
1.000000 0.219608 0.015686
1.000000 0.215686 0.011765
0.992157 0.270588 0.035294
1.000000 0.156863 0.003922
0.996078 0.000000 0.000000
1.000000 0.215686 0.000000
0.980392 0.564706 0.337255
1.000000 0.227451 0.058824
0.000000 0.192157 0.000000
0.000000 0.050980 0.015686
0.000000 0.047059 0.000000
0.019608 0.082353 0.000000
0.235294 0.254902 0.003922
0.294118 0.254902 0.011765
0.050980 0.007843 0.031373
0.309804 0.219608 0.007843
0.243137 0.098039 0.023529
0.356863 0.156863 0.000000
0.435294 0.200000 0.003922
0.603922 0.325490 0.000000
0.478431 0.117647 0.019608
0.596078 0.180392 0.000000
0.650980 0.227451 0.000000
0.603922 0.086275 0.003922
0.741176 0.188235 0.007843
0.823529 0.203922 0.015686
0.792157 0.133333 0.000000
0.811765 0.105882 0.000000
0.831373 0.078431 0.019608
1.000000 0.309804 0.000000
0.980392 0.270588 0.000000
1.000000 0.274510 0.003922
1.000000 0.207843 0.000000
0.988235 0.270588 0.000000
0.976471 0.058824 0.031373
0.992157 0.305882 0.082353
1.000000 0.294118 0.054902
1.000000 0.290196 0.070588
0.992157 0.364706 0.176471
1.000000 0.231373 0.000000
0.003922 0.172549 0.003922
0.007843 0.219608 0.000000
0.121569 0.294118 0.000000
0.145098 0.262745 0.011765
0.117647 0.188235 0.000000
0.109804 0.156863 0.007843
0.243137 0.235294 0.003922
0.290196 0.227451 0.000000
0.470588 0.345098 0.019608
0.447059 0.298039 0.000000
0.419608 0.215686 0.019608
0.533333 0.270588 0.003922
0.501961 0.231373 0.000000
0.470588 0.141176 0.000000
0.745098 0.313725 0.019608
0.647059 0.200000 0.000000
0.733333 0.219608 0.000000
0.666667 0.121569 0.007843
0.839216 0.258824 0.000000
0.956863 0.325490 0.000000
0.894118 0.231373 0.000000
0.984314 0.360784 0.000000
1.000000 0.298039 0.015686
0.839216 0.000000 0.000000
0.968627 0.160784 0.007843
0.996078 0.262745 0.000000
0.960784 0.090196 0.007843
0.976471 0.435294 0.188235
0.898039 0.003922 0.007843
0.992157 0.274510 0.007843
0.992157 0.435294 0.184314
1.000000 0.333333 0.152941
0.090196 0.415686 0.000000
0.098039 0.376471 0.007843
0.000000 0.160784 0.007843
0.231373 0.396078 0.011765
0.301961 0.427451 0.000000
0.207843 0.317647 0.000000
0.223529 0.247059 0.011765
0.317647 0.309804 0.000000
0.490196 0.439216 0.000000
0.580392 0.458824 0.003922
0.521569 0.360784 0.007843
0.384314 0.207843 0.000000
0.490196 0.247059 0.015686
0.639216 0.337255 0.000000
0.694118 0.341176 0.003922
0.866667 0.454902 0.000000
0.811765 0.360784 0.003922
0.894118 0.392157 0.035294
0.929412 0.384314 0.000000
0.980392 0.431373 0.000000
1.000000 0.403922 0.003922
0.835294 0.164706 0.000000
0.937255 0.262745 0.019608
1.000000 0.435294 0.094118
0.996078 0.439216 0.117647
1.000000 0.235294 0.019608
1.000000 0.431373 0.133333
0.988235 0.258824 0.027451
0.996078 0.396078 0.090196
1.000000 0.200000 0.003922
0.996078 0.388235 0.125490
0.992157 0.568627 0.282353
0.000000 0.423529 0.000000
0.000000 0.368627 0.000000
0.000000 0.380392 0.000000
0.050980 0.360784 0.011765
0.117647 0.352941 0.007843
0.262745 0.407843 0.000000
0.152941 0.250980 0.023529
0.219608 0.282353 0.003922
0.274510 0.270588 0.007843
0.325490 0.298039 0.000000
0.270588 0.172549 0.011765
0.521569 0.384314 0.000000
0.454902 0.270588 0.003922
0.729412 0.450980 0.000000
0.635294 0.345098 0.003922
0.647059 0.294118 0.000000
0.733333 0.341176 0.000000
0.878431 0.435294 0.019608
0.858824 0.423529 0.011765
0.976471 0.462745 0.000000
0.980392 0.411765 0.000000
0.972549 0.368627 0.023529
0.984314 0.364706 0.000000
0.917647 0.258824 0.003922
0.988235 0.321569 0.015686
0.941176 0.219608 0.000000
1.000000 0.321569 0.000000
0.984314 0.235294 0.019608
1.000000 0.431373 0.105882
1.000000 0.345098 0.027451
0.992157 0.227451 0.000000
0.980392 0.301961 0.000000
0.003922 0.521569 0.050980
0.011765 0.325490 0.000000
0.000000 0.400000 0.000000
0.000000 0.384314 0.000000
0.000000 0.266667 0.000000
0.007843 0.313725 0.019608
0.282353 0.462745 0.000000
0.145098 0.290196 0.000000
0.270588 0.341176 0.019608
0.282353 0.317647 0.000000
0.517647 0.517647 0.000000
0.372549 0.298039 0.000000
0.509804 0.356863 0.000000
0.619608 0.435294 0.027451
0.623529 0.403922 0.000000
0.607843 0.329412 0.007843
0.713725 0.384314 0.000000
0.854902 0.498039 0.000000
0.764706 0.376471 0.011765
0.839216 0.392157 0.015686
0.945098 0.454902 0.000000
0.988235 0.454902 0.000000
0.988235 0.435294 0.000000
1.000000 0.435294 0.007843
0.858824 0.239216 0.000000
1.000000 0.415686 0.000000
1.000000 0.513725 0.168627
1.000000 0.333333 0.023529
0.992157 0.380392 0.000000
0.992157 0.415686 0.109804
0.988235 0.576471 0.250980
0.992157 0.298039 0.023529
0.000000 0.521569 0.003922
0.011765 0.505882 0.000000
0.000000 0.466667 0.003922
0.000000 0.490196 0.000000
0.074510 0.513725 0.019608
0.007843 0.388235 0.000000
0.231373 0.490196 0.007843
0.239216 0.454902 0.000000
0.337255 0.458824 0.000000
0.478431 0.545098 0.003922
0.474510 0.525490 0.007843
0.545098 0.486275 0.000000
0.407843 0.337255 0.015686
0.517647 0.403922 0.011765
0.737255 0.545098 0.000000
0.819608 0.556863 0.000000
0.647059 0.403922 0.015686
0.827451 0.509804 0.000000
0.752941 0.384314 0.007843
0.678431 0.290196 0.023529
0.898039 0.466667 0.000000
1.000000 0.513725 0.007843
0.858824 0.356863 0.000000
0.984314 0.482353 0.000000
0.992157 0.541176 0.082353
0.996078 0.537255 0.164706
0.996078 0.568627 0.196078
1.000000 0.419608 0.000000
0.992157 0.435294 0.050980
1.000000 0.423529 0.023529
1.000000 0.376471 0.007843
0.980392 0.439216 0.094118
0.019608 0.505882 0.027451
0.015686 0.572549 0.000000
0.000000 0.611765 0.000000
0.003922 0.478431 0.000000
0.011765 0.368627 0.000000
0.000000 0.466667 0.000000
0.066667 0.470588 0.007843
0.000000 0.356863 0.000000
0.403922 0.592157 0.011765
0.396078 0.541176 0.000000
0.505882 0.584314 0.000000
0.439216 0.470588 0.000000
0.564706 0.529412 0.015686
0.556863 0.509804 0.000000
0.682353 0.537255 0.027451
0.639216 0.525490 0.000000
0.623529 0.423529 0.003922
0.733333 0.482353 0.000000
0.886275 0.549020 0.011765
0.701961 0.356863 0.000000
0.941176 0.560784 0.007843
0.835294 0.411765 0.023529
0.949020 0.501961 0.000000
0.956863 0.466667 0.011765
0.984314 0.458824 0.000000
0.992157 0.450980 0.023529
1.000000 0.517647 0.047059
0.976471 0.356863 0.000000
0.992157 0.549020 0.172549
0.984314 0.349020 0.000000
1.000000 0.372549 0.019608
0.996078 0.407843 0.000000
0.000000 0.603922 0.000000
0.000000 0.615686 0.007843
0.003922 0.537255 0.000000
0.000000 0.458824 0.011765
0.000000 0.494118 0.011765
0.000000 0.525490 0.000000
0.266667 0.623529 0.007843
0.184314 0.552941 0.003922
0.298039 0.588235 0.000000
0.345098 0.525490 0.007843
0.454902 0.600000 0.000000
0.509804 0.607843 0.000000
0.580392 0.596078 0.019608
0.611765 0.588235 0.007843
0.580392 0.505882 0.003922
0.713725 0.572549 0.000000
0.780392 0.596078 0.000000
0.741176 0.513725 0.031373
0.752941 0.509804 0.000000
0.890196 0.576471 0.023529
0.929412 0.576471 0.000000
1.000000 0.709804 0.180392
0.976471 0.588235 0.027451
0.929412 0.478431 0.000000
0.996078 0.552941 0.000000
0.847059 0.333333 0.000000
1.000000 0.580392 0.105882
0.866667 0.321569 0.003922
1.000000 0.560784 0.129412
1.000000 0.415686 0.007843
0.996078 0.419608 0.015686
1.000000 0.498039 0.109804
0.000000 0.674510 0.000000
0.035294 0.650980 0.000000
0.003922 0.764706 0.000000
0.015686 0.694118 0.000000
0.000000 0.631373 0.015686
0.000000 0.623529 0.000000
0.015686 0.505882 0.000000
0.278431 0.686275 0.000000
0.282353 0.611765 0.000000
0.325490 0.619608 0.000000
0.431373 0.627451 0.011765
0.392157 0.537255 0.000000
0.698039 0.760784 0.090196
0.407843 0.443137 0.000000
0.580392 0.556863 0.015686
0.698039 0.603922 0.015686
0.749020 0.639216 0.007843
0.835294 0.678431 0.000000
0.760784 0.556863 0.000000
0.913725 0.666667 0.000000
0.803922 0.545098 0.003922
0.803922 0.509804 0.019608
0.984314 0.600000 0.015686
0.992157 0.701961 0.125490
0.996078 0.584314 0.023529
1.000000 0.525490 0.003922
0.972549 0.462745 0.000000
1.000000 0.498039 0.015686
1.000000 0.619608 0.160784
0.992157 0.576471 0.105882
1.000000 0.462745 0.027451
0.988235 0.623529 0.219608
0.000000 0.752941 0.011765
0.000000 0.749020 0.000000
0.000000 0.690196 0.027451
0.000000 0.745098 0.000000
0.000000 0.552941 0.011765
0.015686 0.619608 0.007843
0.082353 0.701961 0.000000
0.125490 0.643137 0.003922
0.019608 0.556863 0.011765
0.313725 0.690196 0.000000
0.494118 0.721569 0.003922
0.462745 0.694118 0.000000
0.443137 0.576471 0.031373
0.603922 0.686275 0.000000
0.498039 0.568627 0.000000
0.647059 0.639216 0.000000
0.705882 0.662745 0.003922
0.682353 0.545098 0.000000
0.752941 0.623529 0.007843
0.803922 0.603922 0.003922
0.960784 0.698039 0.003922
0.898039 0.650980 0.011765
0.800000 0.517647 0.000000
1.000000 0.647059 0.000000
0.964706 0.580392 0.000000
1.000000 0.635294 0.000000
1.000000 0.627451 0.019608
1.000000 0.654902 0.129412
1.000000 0.643137 0.160784
1.000000 0.509804 0.000000
0.992157 0.600000 0.152941
1.000000 0.470588 0.000000
0.000000 0.654902 0.007843
0.019608 0.541176 0.039216
0.015686 0.835294 0.000000
0.007843 0.552941 0.000000
0.000000 0.513725 0.015686
0.000000 0.721569 0.007843
0.000000 0.647059 0.011765
0.000000 0.545098 0.000000
0.227451 0.713725 0.000000
0.211765 0.643137 0.011765
0.360784 0.670588 0.000000
0.490196 0.733333 0.000000
0.380392 0.623529 0.000000
0.564706 0.694118 0.000000
0.517647 0.615686 0.011765
0.737255 0.788235 0.031373
0.666667 0.678431 0.000000
0.611765 0.564706 0.000000
0.788235 0.690196 0.000000
0.792157 0.686275 0.023529
0.803922 0.596078 0.000000
0.952941 0.745098 0.000000
0.878431 0.615686 0.015686
0.835294 0.541176 0.000000
0.996078 0.686275 0.000000
0.980392 0.631373 0.000000
0.933333 0.537255 0.000000
0.996078 0.745098 0.211765
1.000000 0.568627 0.019608
1.000000 0.709804 0.156863
0.980392 0.607843 0.011765
1.000000 0.435294 0.019608
0.007843 0.784314 0.003922
0.000000 0.737255 0.007843
0.023529 0.678431 0.000000
0.243137 1.000000 0.250980
0.000000 0.584314 0.007843
0.011765 0.611765 0.015686
0.027451 0.823529 0.023529
0.000000 0.615686 0.000000
0.007843 0.631373 0.000000
0.180392 0.698039 0.000000
0.474510 0.819608 0.003922
0.454902 0.749020 0.011765
0.541176 0.850980 0.000000
0.400000 0.611765 0.023529
0.619608 0.756863 0.007843
0.643137 0.756863 0.027451
0.686275 0.725490 0.007843
0.627451 0.627451 0.000000
0.788235 0.745098 0.000000
0.713725 0.643137 0.000000
0.886275 0.760784 0.000000
0.835294 0.674510 0.015686
0.964706 0.729412 0.000000
0.921569 0.682353 0.000000
0.850980 0.576471 0.000000
0.984314 0.768627 0.066667
1.000000 0.678431 0.000000
1.000000 0.615686 0.027451
0.996078 0.639216 0.000000
1.000000 0.682353 0.078431
0.992157 0.596078 0.000000
1.000000 0.572549 0.007843
0.000000 0.635294 0.011765
0.000000 0.807843 0.019608
0.000000 0.819608 0.000000
0.000000 0.737255 0.023529
0.007843 0.705882 0.000000
0.011765 0.831373 0.000000
0.007843 0.823529 0.007843
0.019608 0.741176 0.011765
0.266667 0.870588 0.007843
0.258824 0.745098 0.023529
0.215686 0.690196 0.000000
0.588235 0.925490 0.152941
0.384314 0.701961 0.000000
0.345098 0.619608 0.027451
0.513725 0.725490 0.003922
0.623529 0.784314 0.000000
0.537255 0.623529 0.000000
0.717647 0.780392 0.007843
0.768627 0.792157 0.000000
0.729412 0.729412 0.007843
0.866667 0.792157 0.003922
0.819608 0.674510 0.011765
0.996078 0.862745 0.098039
0.933333 0.709804 0.011765
0.984314 0.741176 0.023529
0.917647 0.643137 0.015686
0.984314 0.780392 0.074510
1.000000 0.686275 0.000000
1.000000 0.862745 0.313725
0.996078 0.588235 0.000000
1.000000 0.752941 0.211765
1.000000 0.760784 0.231373
0.011765 0.776471 0.023529
0.000000 0.913725 0.000000
0.000000 0.749020 0.000000
0.000000 0.776471 0.000000
0.003922 0.901961 0.019608
0.000000 0.819608 0.000000
0.007843 0.768627 0.003922
0.000000 0.831373 0.000000
0.000000 0.713725 0.007843
0.188235 0.776471 0.050980
0.098039 0.709804 0.000000
0.454902 0.854902 0.000000
0.501961 0.901961 0.000000
0.533333 0.866667 0.000000
0.392157 0.698039 0.000000
0.654902 0.878431 0.031373
0.666667 0.807843 0.000000
0.603922 0.729412 0.003922
0.603922 0.705882 0.000000
0.992157 0.980392 0.239216
0.917647 0.913725 0.070588
0.811765 0.729412 0.000000
1.000000 0.901961 0.125490
0.858824 0.705882 0.000000
0.760784 0.549020 0.019608
0.913725 0.701961 0.000000
0.988235 0.768627 0.000000
0.972549 0.650980 0.007843
1.000000 0.749020 0.007843
0.980392 0.803922 0.164706
0.905882 0.517647 0.011765
0.996078 0.788235 0.231373
0.000000 0.713725 0.000000
0.000000 0.890196 0.007843
0.023529 0.772549 0.019608
0.000000 0.917647 0.000000
0.000000 0.827451 0.019608
0.000000 0.917647 0.031373
0.000000 0.901961 0.000000
0.011765 0.874510 0.000000
0.129412 0.858824 0.000000
0.082353 0.811765 0.000000
0.184314 0.780392 0.000000
0.333333 0.819608 0.000000
0.501961 0.949020 0.023529
0.490196 0.843137 0.000000
0.388235 0.701961 0.000000
0.627451 0.886275 0.015686
0.572549 0.760784 0.000000
0.694118 0.870588 0.027451
0.760784 0.862745 0.000000
0.788235 0.854902 0.007843
0.752941 0.764706 0.000000
0.913725 0.901961 0.000000
0.839216 0.768627 0.047059
0.941176 0.843137 0.000000
0.956863 0.811765 0.015686
0.949020 0.741176 0.000000
0.992157 0.811765 0.000000
1.000000 0.819608 0.027451
1.000000 0.905882 0.239216
0.988235 0.788235 0.047059
1.000000 0.776471 0.062745
0.988235 0.678431 0.000000
0.023529 0.788235 0.011765
0.007843 0.874510 0.000000
0.007843 0.788235 0.000000
0.000000 0.972549 0.141176
0.000000 0.780392 0.000000
0.000000 0.858824 0.023529
0.000000 0.874510 0.000000
0.003922 0.854902 0.011765
0.090196 0.905882 0.050980
0.000000 0.788235 0.000000
0.333333 0.929412 0.000000
0.003922 0.725490 0.003922
0.419608 0.850980 0.015686
0.509804 0.913725 0.007843
0.478431 0.854902 0.000000
0.466667 0.796078 0.015686
0.682353 0.960784 0.019608
0.592157 0.839216 0.011765
0.803922 0.952941 0.031373
0.772549 0.917647 0.000000
0.690196 0.784314 0.000000
0.780392 0.784314 0.000000
0.894118 0.874510 0.000000
0.968627 0.901961 0.000000
0.850980 0.784314 0.000000
1.000000 0.909804 0.129412
1.000000 0.831373 0.007843
0.992157 1.000000 0.368627
0.956863 0.698039 0.000000
0.996078 0.803922 0.015686
1.000000 0.756863 0.015686
0.976471 0.705882 0.000000
0.000000 0.992157 0.152941
0.000000 0.725490 0.019608
0.000000 0.870588 0.000000
0.000000 0.772549 0.000000
0.000000 0.862745 0.000000
0.000000 0.874510 0.007843
0.015686 0.886275 0.000000
0.000000 0.956863 0.019608
0.003922 0.768627 0.000000
0.305882 0.980392 0.094118
0.270588 0.909804 0.011765
0.380392 0.937255 0.011765
0.184314 0.776471 0.000000
0.392157 0.905882 0.011765
0.458824 0.878431 0.000000
0.513725 0.858824 0.000000
0.517647 0.850980 0.015686
0.521569 0.768627 0.000000
0.576471 0.784314 0.000000
0.670588 0.847059 0.000000
0.815686 0.921569 0.000000
0.725490 0.815686 0.011765
0.913725 0.913725 0.000000
0.780392 0.780392 0.011765
0.839216 0.811765 0.000000
1.000000 0.992157 0.227451
1.000000 1.000000 0.270588
0.866667 0.682353 0.000000
1.000000 0.890196 0.000000
0.988235 0.803922 0.003922
0.988235 0.800000 0.000000
1.000000 0.764706 0.007843
0.000000 0.980392 0.129412
0.007843 0.823529 0.000000
0.027451 0.988235 0.145098
0.015686 0.764706 0.000000
0.000000 1.000000 0.227451
0.345098 1.000000 0.313725
0.000000 0.949020 0.000000
0.000000 0.847059 0.011765
0.000000 0.917647 0.000000
0.027451 0.835294 0.023529
0.023529 0.862745 0.000000
0.007843 0.800000 0.015686
0.262745 0.847059 0.011765
0.450980 0.956863 0.015686
0.309804 0.792157 0.000000
0.458824 0.847059 0.011765
0.564706 0.901961 0.027451
0.576471 0.894118 0.011765
0.576471 0.866667 0.015686
0.737255 0.941176 0.027451
0.686275 0.843137 0.015686
0.831373 0.952941 0.007843
0.760784 0.843137 0.000000
0.917647 0.949020 0.000000
0.901961 0.945098 0.000000
0.972549 0.898039 0.011765
0.988235 0.949020 0.086275
0.874510 0.764706 0.000000
0.964706 0.796078 0.007843
1.000000 0.933333 0.043137
1.000000 0.788235 0.000000
1.000000 0.831373 0.000000
0.164706 0.988235 0.317647
0.000000 0.792157 0.000000
0.003922 0.984314 0.082353
0.000000 0.952941 0.003922
0.000000 0.937255 0.007843
0.282353 0.996078 0.290196
0.000000 0.823529 0.027451
0.011765 0.886275 0.000000
0.003922 0.917647 0.019608
0.000000 0.831373 0.011765
0.243137 0.984314 0.050980
0.301961 0.968627 0.003922
0.419608 0.988235 0.105882
0.298039 0.870588 0.000000
0.396078 0.913725 0.007843
0.631373 0.996078 0.200000
0.447059 0.843137 0.000000
0.513725 0.874510 0.000000
0.564706 0.850980 0.011765
0.552941 0.827451 0.000000
0.686275 0.909804 0.000000
0.764706 0.937255 0.023529
0.929412 0.992157 0.168627
0.741176 0.839216 0.000000
0.784314 0.835294 0.007843
0.894118 0.898039 0.011765
0.929412 0.882353 0.003922
0.996078 0.925490 0.015686
1.000000 0.905882 0.000000
0.992157 0.905882 0.000000
1.000000 0.996078 0.294118
1.000000 0.901961 0.000000
0.003922 0.909804 0.007843
0.000000 1.000000 0.141176
0.011765 0.921569 0.003922
0.000000 1.000000 0.121569
0.015686 0.890196 0.000000
0.000000 0.988235 0.109804
0.000000 0.984314 0.074510
0.007843 0.960784 0.011765
0.000000 0.949020 0.000000
0.000000 0.886275 0.019608
0.207843 0.964706 0.000000
0.298039 0.988235 0.113725
0.443137 1.000000 0.231373
0.352941 0.956863 0.000000
0.364706 0.913725 0.000000
0.564706 1.000000 0.141176
0.607843 1.000000 0.211765
0.509804 0.886275 0.007843
0.709804 1.000000 0.200000
0.615686 0.901961 0.011765
0.611765 0.890196 0.011765
0.733333 0.941176 0.007843
0.803922 0.976471 0.015686
0.639216 0.772549 0.000000
0.921569 1.000000 0.019608
0.984314 1.000000 0.149020
0.827451 0.843137 0.000000
0.988235 0.996078 0.219608
0.882353 0.807843 0.000000
0.988235 0.890196 0.000000
0.992157 0.862745 0.003922
1.000000 0.976471 0.090196
0.000000 0.992157 0.160784
0.003922 0.984314 0.082353
0.019608 0.890196 0.000000
0.172549 1.000000 0.305882
0.000000 0.882353 0.000000
0.000000 0.858824 0.003922
0.000000 0.960784 0.031373
0.000000 0.968627 0.082353
0.000000 1.000000 0.133333
0.000000 0.956863 0.000000
0.282353 1.000000 0.215686
0.313725 1.000000 0.156863
0.294118 0.964706 0.070588
0.596078 0.988235 0.356863
0.309804 0.901961 0.011765
0.611765 1.000000 0.270588
0.498039 0.972549 0.090196
0.705882 1.000000 0.301961
0.513725 0.894118 0.035294
0.560784 0.874510 0.000000
0.772549 1.000000 0.282353
0.623529 0.878431 0.000000
0.745098 0.956863 0.000000
0.647059 0.839216 0.003922
0.835294 0.972549 0.000000
0.901961 0.976471 0.000000
0.905882 0.949020 0.000000
0.968627 0.972549 0.015686
0.882353 0.874510 0.000000
0.996078 0.933333 0.000000
0.988235 0.925490 0.003922
1.000000 0.870588 0.000000
0.000000 0.847059 0.000000
0.015686 0.996078 0.164706
0.000000 1.000000 0.231373
0.474510 1.000000 0.400000
0.000000 1.000000 0.188235
0.023529 0.917647 0.000000
0.211765 0.996078 0.262745
0.003922 0.952941 0.031373
0.019608 0.949020 0.023529
0.007843 0.792157 0.000000
0.301961 0.996078 0.243137
0.321569 1.000000 0.247059
0.129412 0.898039 0.019608
0.211765 0.909804 0.000000
0.454902 0.992157 0.192157
0.525490 0.992157 0.247059
0.423529 0.941176 0.023529
0.541176 0.988235 0.164706
0.435294 0.886275 0.003922
0.603922 0.976471 0.129412
0.611765 0.941176 0.019608
0.690196 0.984314 0.109804
0.713725 1.000000 0.070588
1.000000 0.996078 0.423529
0.874510 0.988235 0.196078
0.941176 1.000000 0.180392
0.909804 0.992157 0.047059
0.988235 0.996078 0.231373
0.760784 0.925490 0.015686
1.000000 1.000000 0.231373
1.000000 0.988235 0.078431
0.992157 0.988235 0.054902
0.000000 1.000000 0.180392
0.000000 0.996078 0.250980
0.294118 1.000000 0.364706
0.015686 1.000000 0.188235
0.000000 0.988235 0.137255
0.000000 0.933333 0.000000
0.290196 0.980392 0.341176
0.000000 1.000000 0.262745
0.000000 0.933333 0.007843
0.003922 0.988235 0.137255
0.549020 1.000000 0.403922
0.250980 0.988235 0.211765
0.000000 0.933333 0.015686
0.458824 1.000000 0.290196
0.188235 0.949020 0.000000
0.290196 0.972549 0.011765
0.458824 1.000000 0.192157
0.803922 0.996078 0.443137
0.462745 0.976471 0.019608
0.741176 1.000000 0.345098
0.576471 1.000000 0.070588
0.631373 1.000000 0.109804
0.549020 0.984314 0.000000
0.905882 1.000000 0.388235
0.635294 0.980392 0.019608
0.788235 0.996078 0.000000
0.894118 1.000000 0.168627
1.000000 1.000000 0.450980
0.933333 0.992157 0.007843
0.921569 0.996078 0.007843
0.890196 0.996078 0.000000
0.996078 1.000000 0.109804
0.000000 1.000000 0.250980
0.215686 1.000000 0.364706
0.501961 0.996078 0.466667
0.000000 1.000000 0.098039
0.007843 0.992157 0.231373
0.235294 1.000000 0.345098
0.172549 1.000000 0.309804
0.000000 0.992157 0.000000
0.137255 0.996078 0.258824
0.223529 0.992157 0.262745
0.000000 1.000000 0.133333
0.396078 0.992157 0.325490
0.294118 0.984314 0.250980
0.192157 1.000000 0.176471
0.517647 1.000000 0.341176
0.584314 0.996078 0.356863
0.415686 0.996078 0.227451
0.196078 0.996078 0.000000
0.447059 1.000000 0.141176
0.145098 1.000000 0.000000
0.658824 1.000000 0.321569
0.556863 0.984314 0.078431
